X: 023
T: Lady Mary Hay's Reel
C: attr. John French (1753-1803)
R: reel
B: "John French Collection", John French ed. p.2 #3
S: http://www.heallan.com/french.asp
Z: 2012 John Chambers <jc:trillian.mit.edu>
N: The 2nd part was written out twice; converted to a repeated 4-bar phrase.
M: C
L: 1/8
K: F
   f | cfAf cfAf | (cf/g/a).f gGGf | cfAf cbag | fdcB AF-F :|
|: A | (F/G/A/B/) cf Acfa | bgaf gGGA | (F/G/A/B/) cf bgaf | cbag fF-F :|

%%sep 2 1 500
%%sep 1 1 500

